svgs/solid/user-nurse.svg

<svg xmlns="http://www.w3.org/2000/svg" viewBox="0 0 448 512"><!-- Font Awesome Pro 6.0.0-alpha2 by @fontawesome - https://fontawesome.com License - https://fontawesome.com/license (Commercial License) --><path d="M224 304C294.75 304 352 246.75 352 176V65.875C352 52.5 343.75 40.5 331.25 35.875L246.5 4.125C239.25 1.375 231.625 0 224 0S208.75 1.375 201.5 4.125L116.75 35.875C104.25 40.5 96 52.5 96 65.875V176C96 246.75 153.25 304 224 304ZM184 71.625C184 68.875 186.25 66.625 189 66.625H210.625V45C210.625 42.25 212.875 40 215.625 40H232.375C235.125 40 237.375 42.25 237.375 45V66.625H259C261.75 66.625 264 68.875 264 71.625V88.375C264 91.125 261.75 93.375 259 93.375H237.375V115C237.375 117.75 235.125 120 232.375 120H215.625C212.875 120 210.625 117.75 210.625 115V93.375H189C186.25 93.375 184 91.125 184 88.375V71.625ZM144 160H304V176C304 220.125 268.125 256 224 256S144 220.125 144 176V160ZM327.188 312.812L224 416L120.812 312.812C50.885 335.117 0 400.008 0 477.332C0 496.477 15.523 512 34.664 512H413.336C432.477 512 448 496.477 448 477.332C448 400.008 397.119 335.113 327.188 312.812Z "></path></svg>

<svg xmlns="http://www.w3.org/2000/svg" viewBox="0 0 448 512"><!--! Font Awesome Pro 6.0.0-alpha3 by @fontawesome - https://fontawesome.com License - https://fontawesome.com/license (Commercial License) --><path d="M224 304c70.75 0 128-57.25 128-128V65.88c0-13.38-8.25-25.38-20.75-30L246.5 4.125C239.3 1.375 231.6 0 224 0S208.8 1.375 201.5 4.125L116.8 35.88C104.3 40.5 96 52.5 96 65.88V176C96 246.8 153.3 304 224 304zM184 71.63c0-2.75 2.25-5 5-5h21.62V45c0-2.75 2.25-5 5-5h16.75c2.75 0 5 2.25 5 5v21.62H259c2.75 0 5 2.25 5 5v16.75c0 2.75-2.25 5-5 5h-21.62V115c0 2.75-2.25 5-5 5H215.6c-2.75 0-5-2.25-5-5V93.38H189c-2.75 0-5-2.25-5-5V71.63zM144 160h160v16C304 220.1 268.1 256 224 256S144 220.1 144 176V160zM327.2 312.8L224 416L120.8 312.8c-69.93 22.3-120.8 87.25-120.8 164.6C.0006 496.5 15.52 512 34.66 512H413.3c19.14 0 34.66-15.46 34.66-34.61C447.1 400.1 397.1 335.1 327.2 312.8z"/></svg>
